modules/hawcons-stroke/icons/icon-7-mail-envelope-open.svg

<?xml version="1.0" encoding="UTF-8" standalone="no"?>
<svg width="32px" height="32px" viewBox="0 0 32 32" version="1.1" xmlns="http://www.w3.org/2000/svg" xmlns:xlink="http://www.w3.org/1999/xlink" xmlns:sketch="http://www.bohemiancoding.com/sketch/ns">
    <!-- Generator: Sketch 3.0.3 (7891) - http://www.bohemiancoding.com/sketch -->
    <title>icon 7 mail envelope open</title>
    <desc>Created with Sketch.</desc>
    <defs></defs>
    <g id="Page-1" stroke="none" stroke-width="1" fill="none" fill-rule="evenodd" sketch:type="MSPage">
        <g id="icon-7-mail-envelope-open" sketch:type="MSArtboardGroup" fill="#929292">
            <path d="M16.5,3 L4,14 L4,28.0059397 C4,29.1072288 4.88976324,30 6.00359486,30 L26.9964051,30 C28.10296,30 29,29.1054862 29,28.0059397 L29,14 L16.5,3 L16.5,3 Z M13.5,23 L6.5,29 L26.5,29 L19.5,23 L13.5,23 L13.5,23 Z M16.5,4.30000019 L27.5,14 L18.5,22.000001 L14.5,22.000001 L5.5,14 L16.5,4.30000019 L16.5,4.30000019 Z M27.68514,28.7251701 L20,22.0170898 L28,15 L28,21.5000199 L28,28.0000398 C28,28.2831537 27.8789949,28.5418569 27.68514,28.7251701 L27.68514,28.7251701 L27.68514,28.7251701 Z M5.31486,28.7251701 L13,22.0170898 L5,15 L5,21.5000199 L5,28.0000398 C5,28.2831537 5.12100514,28.5418569 5.31486,28.7251701 L5.31486,28.7251701 L5.31486,28.7251701 Z" id="mail-envelope-open" sketch:type="MSShapeGroup"></path>
        </g>
    </g>
</svg>

<svg width="32" height="32" viewBox="0 0 32 32" xmlns="http://www.w3.org/2000/svg"><path d="M16.5 3L4 14v14.006C4 29.107 4.89 30 6.004 30h20.992A2 2 0 0 0 29 28.006V14L16.5 3zm-3 20l-7 6h20l-7-6h-6zm3-18.7l11 9.7-9 8h-4l-9-8 11-9.7zm11.185 24.425L20 22.017 28 15v13a.998.998 0 0 1-.315.725zm-22.37 0L13 22.017 5 15v13c0 .283.121.542.315.725z" fill="#929292" fill-rule="evenodd"/></svg>
